images/icon_step_finish.svg

<svg width="16" height="16" viewBox="0 0 16 16" fill="none" xmlns="http://www.w3.org/2000/svg">
<path d="M7.58333 16C7.43055 15.0972 7.02778 14.125 6.375 13.0833C5.72222 12.0278 4.79167 11.0486 3.58333 10.1458C2.38889 9.24305 1.19444 8.66667 0 8.41667V7.54167C1.18056 7.26389 2.3125 6.75 3.39583 6C4.49306 5.23611 5.40972 4.31944 6.14583 3.25C6.89583 2.15278 7.375 1.06944 7.58333 0H8.45833C8.58333 0.694444 8.83333 1.40972 9.20833 2.14583C9.58333 2.86805 10.0625 3.5625 10.6458 4.22917C11.2431 4.88194 11.9097 5.47222 12.6458 6C13.7431 6.77778 14.8611 7.29167 16 7.54167V8.41667C15.2361 8.56944 14.4444 8.88194 13.625 9.35416C12.8194 9.82639 12.0694 10.3889 11.375 11.0417C10.6806 11.6806 10.1111 12.3542 9.66667 13.0625C9.01389 14.1042 8.61111 15.0833 8.45833 16H7.58333Z" fill="white"/>
</svg>

<svg xmlns="http://www.w3.org/2000/svg" width="16" height="16" fill="none"><path fill="#fff" d="M7.583 16q-.228-1.354-1.208-2.917-.979-1.583-2.792-2.937Q1.792 8.79 0 8.416v-.874Q1.77 7.125 3.396 6a10.8 10.8 0 0 0 2.75-2.75Q7.27 1.605 7.583 0h.875q.188 1.041.75 2.146.562 1.084 1.438 2.083a13 13 0 0 0 2 1.771Q14.29 7.167 16 7.542v.875q-1.146.229-2.375.937a12.5 12.5 0 0 0-2.25 1.688 10 10 0 0 0-1.708 2.02Q8.687 14.626 8.458 16z"/></svg>
